X:1
T:Title
%%score { 1 | 2 }
L:1/8
M:4/4
K:C
V:1 treble nm="Grand Piano"
V:2 bass 
V:1
 z4 z2[Q:1/4=88] [CE]>[DF] | [EG][EG][EG][EG] [EG][EG][FA][FB] | [Ec]6 [Gc]>[GB] | %3
 A2 A>A [Ac]2 [FA]2 |[M:3/4] [EG]6 |[M:1/4] [CE]>[DF] |[M:4/4] [EG][EG][EG][EG] [EG][EG][FA][GB] | %7
 [Ec]6 [Gc]>[CGB] | [CFA]2 [CFA]>[CFA] [FAd]2 [EGc]>[DFB] |[M:3/4] [Ec]6 |[M:1/4] [Ge]>[Gd] | %11
[M:4/4] [Ac]2 [Ac]>[GB] [FA][GB] [Ac]>[FA] | [EG]2 [EG]>[DF] E[EG] [Gc]>d | e2 e>e ee c2 | %14
 d6 [Gc]d | eeed c2 [Gd][Gc] | AAAA [Ac]2 [GB]>A | G2 c>d ee d2 |[M:3/4] [Ec]6 |] %19
V:2
 z4 z2 [C,G,]>[C,C] | [C,C][C,C][C,C][C,C] [C,C][C,C][C,C][C,G,] | [C,G,]6 [E,G,]>[E,C] | %3
 [F,CF]2 [F,CF]>[F,CF] [F,C]2 [F,C]2 |[M:3/4] [C,C]6 |[M:1/4] [C,G,]>[C,C] | %6
[M:4/4] [C,C][C,C][C,C][C,C] [C,C][C,C][C,C][C,G,] | [C,G,]6 [E,G,]>E, | F,2 F,>F, D,2 G,>G, | %9
[M:3/4] [C,C]6 |[M:1/4] [C,C]>[E,C] |[M:4/4] [F,C]2 [F,C]>[F,C] [F,C][F,C] [F,C]>[F,C] | %12
 [C,C]2 [C,C]>[C,C] [C,C][C,C] [E,C]>[K:treble][G,B,G] | [CG]2 [CG]>[CG] [CG][CG] [CE]2 | %14
 [G,B,G]6 [E,C][G,CG] | [CG][CG][CG][CF] [CE]2[K:bass] [D,C][E,C] | %16
 [F,CF][F,CF][F,CF][F,CF] [F,C]2 [F,C]>[K:treble][F,CF] | %17
 [G,CE]2 [G,CE]>[G,CF] [G,CG][G,CG] [G,F]2 |[M:3/4][K:bass] [C,G,]6 |] %19

